src/assets/compress.svg

<svg width="800" height="800" viewBox="0 0 24 24" fill="none" xmlns="http://www.w3.org/2000/svg"><path d="M9 4v5H4m11-5v5h5M4 15h5v5m6 0v-5h5" stroke="currentColor" stroke-width="2" stroke-linecap="round" stroke-linejoin="round"/></svg>

<?xml version="1.0" encoding="utf-8"?><!-- Uploaded to: SVG Repo, www.svgrepo.com, Generator: SVG Repo Mixer Tools -->
<svg width="800px" height="800px" viewBox="0 0 24 24" fill="none" xmlns="http://www.w3.org/2000/svg">
<path d="M9 4V9H4M15 4V9H20M4 15H9V20M15 20V15H20" stroke="currentColor" stroke-width="2" stroke-linecap="round" stroke-linejoin="round"/>
</svg>
